X: 16261
T: Gremlin
R: jig
M: 6/8
K: Dminor
|:DAF GEF|A,FE DA,C|DA,D ~E3|FDF GcB|
AFA GFE|DA,D ~E3|FDF GcB|1 Adc d3:|2 Adc dFG||
|:A3 BAG|ADD D2E|F3 FED|G3 GFE|
A3 BAG|Adc d2e|fed Adc|1 Adc dFG:|2 [M:9/8] Adc d3- d3||
[M:6/8] d3 dfg|agf gfe|fed cBA||

